X:43
T:Paddy Fahy's Reel
S:Bernie Waugh
R:Reel
M:2/4
L:1/16
K:D Dorian
|:\
"Dm"D2A,D "F"FEFG|"Dm"Ad2c ~d2de|"Bb"fedg edcA|"A"dcAG ~^F2EF|
"Dm"D2A,D "F"FEFG|"Dm"Ad~dc ~d2de|"Bb"fedg edcA|"A"dcAG ~^F2EF:|
|:\
"Dm"Ad~d2 ^cdfd|"C"~c2Gc EcGc|"Dm"Add2 ^cdad|"C"cBcd "Dm"ed^cd|
"Am"~a2^ga ABcA|"Bb"~d2AG ^FGEF|"G"D2A,D FEFG|"A"Ad~dc "Dm"d4:|


